packages/ckeditor5-core/theme/icons/object-right.svg

<?xml version="1.0" encoding="UTF-8" standalone="no"?><svg width="100%" height="100%" viewBox="0 0 20 20" version="1.1" xmlns="http://www.w3.org/2000/svg" xmlns:xlink="http://www.w3.org/1999/xlink" xml:space="preserve"><path id="_-Curves-" d="M18,16l-16,0l0,-1l16,0l0,1Zm-11.022,-3l-4.978,0l0,-1l4.978,0l0,1Zm11.022,-7l0,7l-9,0l0,-7l9,0Zm-1,6l0,-5l-7,0l0,5l7,0Zm-10.022,-2l-4.978,0l0,-1l4.978,0l0,1Zm0,-3l-4.978,0l0,-1l4.978,0l0,1Zm11.022,-3l-16,0l0,-1l16,0l0,1Z"/></svg>

<svg viewBox="0 0 20 20" xmlns="http://www.w3.org/2000/svg"><path d="M18 16H2v-1h16v1zM6.978 13H2v-1h4.978v1zM18 6v7H9V6h9zm-1 6V7h-7v5h7zM6.978 10H2V9h4.978v1zm0-3H2V6h4.978v1zM18 4H2V3h16v1z"/></svg>
